X:0235
M:6/8
L:1/8
Q:3/8=92
K:G
d|g2g aga|b2g g2e|ded dcB|A2D D2
d|g2g aga|b2g g2e|dcB AGF|G3  G2:|

